X: 0
T: Remember, O Thou Man
L: 1/4
M: 3/2
Q: 1/4=380
K: Bb
[V: P1]  G2 G2 G2 | B3 A G2 | F3 F G2 | A3 ^F D2 | G2 G2 G2 | B3 A G2 | F2 F2 G2 | A6 | B2 d2 d2 | d3 c B2 | A2 c2 c2 | c3 B A2 | B2 A2 G2 | ^F3 G A2 | c2 =B2 A2 | G3|]

